X: 14756
T: Gan Ainm
R: slip jig
M: 9/8
K: Amajor
[Ac]2 c Bcd cAE|FAd def ee/e/d|c2c Bcd cAE|FF/F/E AFA Bc/B/A|
cAc Bcd cAE|FAd def e2d|f2e efc BcA|BcA BE/F/G A3||
cBc dcd e2a|f2e efa fed|cBc dcd e2a|f2e efc BcA|
cE/A/c dcd e2a|f2e ef/g/a b2a|c'2b bc'a gae|fga fec BB/B/A||

